Suru++-Ubuntu/apps/scalable/accessories-character-map.svg

<svg xmlns="http://www.w3.org/2000/svg" xmlns:xlink="http://www.w3.org/1999/xlink" width="256" height="256" version="1.1" viewBox="0 0 67.73 67.73">
 <defs>
  <linearGradient id="linearGradient1108" x1="296" x2="296" y1="-212" y2="202.4" gradientUnits="userSpaceOnUse" xlink:href="#linearGradient1013"/>
  <linearGradient id="linearGradient1013">
   <stop offset="0" style="stop-color:#ffffff"/>
   <stop style="stop-color:#ffffff;stop-opacity:0.09803922" offset=".135"/>
   <stop style="stop-color:#ffffff;stop-opacity:0" offset="1"/>
  </linearGradient>
  <clipPath id="clipPath1082-3-3675" clipPathUnits="userSpaceOnUse">
   <path d="M 361.9375,-212 C 507.2348,-212 528,-191.28677 528,-46.125 V 70.125 C 528,215.28618 507.2348,236 361.9375,236 H 214.0625 C 68.7652,236 48,215.28618 48,70.125 V -46.125 C 48,-191.28677 68.7652,-212 214.0625,-212 Z" style="fill:#8c59d9"/>
  </clipPath>
  <filter style="color-interpolation-filters:sRGB" id="filter910" width="1.046" height="1.05" x="-.02" y="-.03">
   <feGaussianBlur stdDeviation="2.32"/>
  </filter>
  <filter style="color-interpolation-filters:sRGB" id="filter4569" width="1.023" height="1.025" x="-.01" y="-.01">
   <feGaussianBlur stdDeviation="1.16"/>
  </filter>
 </defs>
 <g transform="translate(0,-229.26666)">
  <g style="enable-background:new" transform="matrix(0.12974173,0,0,0.12974173,3.8344818,227.85345)">
   <path d="m 301.90773,44.402363 c 148.15296,0 169.32628,21.120327 169.32628,169.135097 v 118.53478 c 0,148.01417 -21.17332,169.1351 -169.32628,169.1351 H 151.12641 c -148.1529701,0 -169.32628,-21.12093 -169.32628,-169.1351 V 213.53746 c 0,-148.01477 21.1733099,-169.135097 169.32628,-169.135097 z" style="opacity:0.2;fill:none;stroke:#000000;stroke-width:8.15723133;stroke-linecap:round;stroke-linejoin:round"/>
   <path d="m 162.53675,3.5680001 c 72.64865,0 83.03125,10.3566149 83.03125,82.9375049 v 58.125005 c 0,72.58059 -10.3826,82.9375 -83.03125,82.9375 H 88.599254 C 15.9506,227.56801 5.568,217.2111 5.568,144.63051 V 86.505505 c 0,-72.58089 10.3826,-82.9375049 83.031254,-82.9375049 z" transform="matrix(2.0393079,0,0,2.0393079,-29.55473,37.126102)" style="opacity:0.1;filter:url(#filter4569)"/>
   <path style="opacity:0.2;filter:url(#filter910)" d="m 162.53675,5.5680001 c 72.64865,0 83.03125,10.3566149 83.03125,82.9375049 v 58.125005 c 0,72.58059 -10.3826,82.9375 -83.03125,82.9375 H 88.599254 C 15.9506,229.56801 5.568,219.2111 5.568,146.63051 V 88.505505 c 0,-72.58089 10.3826,-82.9375049 83.031254,-82.9375049 z" transform="matrix(2.0393079,0,0,2.0393079,-29.55473,37.126102)"/>
   <path style="fill:#f7f7f7" d="m 301.90773,44.402363 c 148.15296,0 169.32628,21.120327 169.32628,169.135097 v 118.53478 c 0,148.01417 -21.17332,169.1351 -169.32628,169.1351 H 151.12641 c -148.1529701,0 -169.32628,-21.12093 -169.32628,-169.1351 V 213.53746 c 0,-148.01477 21.1733099,-169.135097 169.32628,-169.135097 z"/>
   <path d="M 361.9375,-212 C 507.2348,-212 528,-191.28677 528,-46.125 V 70.125 C 528,215.28618 507.2348,236 361.9375,236 H 214.0625 C 68.7652,236 48,215.28618 48,70.125 V -46.125 C 48,-191.28677 68.7652,-212 214.0625,-212 Z" clip-path="url(#clipPath1082-3-3675)" transform="matrix(1.0196539,0,0,1.0196539,-67.14326,260.569)" style="opacity:0.5;fill:none;stroke:url(#linearGradient1108);stroke-width:8;stroke-linecap:round;stroke-linejoin:round"/>
   <text x="340.57" y="427" xml:space="preserve" style="font-size:280.92504883px;line-height:1000%;letter-spacing:0px;word-spacing:0px;fill:#ffffff">
    <tspan style="font-weight:300;font-family:Ubuntu;text-align:center;text-anchor:middle;fill:#ffffff" x="340.57" y="427">à</tspan>
   </text>
   <text style="font-size:280.92504883px;line-height:1000%;letter-spacing:0px;word-spacing:0px;fill:#666666" x="340.57" y="422.92" xml:space="preserve">
    <tspan x="340.57" y="422.92" style="font-weight:300;font-family:Ubuntu;text-align:center;text-anchor:middle;fill:#666666">à</tspan>
   </text>
  </g>
 </g>
</svg>

<svg width="256" height="256" version="1.1" viewBox="0 0 67.73 67.73" xmlns="http://www.w3.org/2000/svg" xmlns:xlink="http://www.w3.org/1999/xlink">
 <defs>
  <linearGradient id="linearGradient1108" x1="296" x2="296" y1="-212" y2="202.4" gradientUnits="userSpaceOnUse">
   <stop style="stop-color:#ffffff" offset="0"/>
   <stop style="stop-color:#ffffff;stop-opacity:.09803922" offset=".135"/>
   <stop style="stop-color:#ffffff;stop-opacity:0" offset="1"/>
  </linearGradient>
  <clipPath id="clipPath1082-3-3675">
   <path d="M 361.9375,-212 C 507.2348,-212 528,-191.28677 528,-46.125 V 70.125 C 528,215.28618 507.2348,236 361.9375,236 H 214.0625 C 68.7652,236 48,215.28618 48,70.125 V -46.125 C 48,-191.28677 68.7652,-212 214.0625,-212 Z" style="fill:#8c59d9"/>
  </clipPath>
  <filter id="filter910" x="-.02" y="-.03" width="1.046" height="1.05" style="color-interpolation-filters:sRGB">
   <feGaussianBlur stdDeviation="2.32"/>
  </filter>
  <filter id="filter4569" x="-.01" y="-.01" width="1.023" height="1.025" style="color-interpolation-filters:sRGB">
   <feGaussianBlur stdDeviation="1.16"/>
  </filter>
 </defs>
 <g transform="translate(0,-229.26666)">
  <g transform="matrix(.12974173 0 0 .12974173 3.8344818 227.85345)" style="enable-background:new">
   <path d="m301.90773 44.402363c148.15296 0 169.32628 21.120327 169.32628 169.1351v118.53478c0 148.01417-21.17332 169.1351-169.32628 169.1351h-150.78132c-148.15297 0-169.32628-21.12093-169.32628-169.1351v-118.53478c0-148.01477 21.17331-169.1351 169.32628-169.1351z" style="fill:none;opacity:.2;stroke-linecap:round;stroke-linejoin:round;stroke-width:8.1572313;stroke:#000000"/>
   <path transform="matrix(2.0393079,0,0,2.0393079,-29.55473,37.126102)" d="m162.53675 3.5680001c72.64865 0 83.03125 10.356615 83.03125 82.937505v58.125005c0 72.58059-10.3826 82.9375-83.03125 82.9375h-73.937496c-72.648654 0-83.031254-10.35691-83.031254-82.9375v-58.125005c0-72.58089 10.3826-82.937505 83.031254-82.937505z" style="filter:url(#filter4569);opacity:.1"/>
   <path transform="matrix(2.0393079,0,0,2.0393079,-29.55473,37.126102)" d="m162.53675 5.5680001c72.64865 0 83.03125 10.356615 83.03125 82.937505v58.125005c0 72.58059-10.3826 82.9375-83.03125 82.9375h-73.937496c-72.648654 0-83.031254-10.35691-83.031254-82.9375v-58.125005c0-72.58089 10.3826-82.937505 83.031254-82.937505z" style="filter:url(#filter910);opacity:.2"/>
   <path d="m301.90773 44.402363c148.15296 0 169.32628 21.120327 169.32628 169.1351v118.53478c0 148.01417-21.17332 169.1351-169.32628 169.1351h-150.78132c-148.15297 0-169.32628-21.12093-169.32628-169.1351v-118.53478c0-148.01477 21.17331-169.1351 169.32628-169.1351z" style="fill:#f7f7f7"/>
   <path transform="matrix(1.0196539,0,0,1.0196539,-67.14326,260.569)" d="M 361.9375,-212 C 507.2348,-212 528,-191.28677 528,-46.125 V 70.125 C 528,215.28618 507.2348,236 361.9375,236 H 214.0625 C 68.7652,236 48,215.28618 48,70.125 V -46.125 C 48,-191.28677 68.7652,-212 214.0625,-212 Z" clip-path="url(#clipPath1082-3-3675)" style="fill:none;opacity:.5;stroke-linecap:round;stroke-linejoin:round;stroke-width:8;stroke:url(#linearGradient1108)"/>
   <text x="340.57" y="427" style="fill:#ffffff;font-size:280.92505px;letter-spacing:0px;line-height:1000%;word-spacing:0px" xml:space="preserve">
    <tspan x="340.57" y="427" style="fill:#ffffff;font-family:Ubuntu;font-weight:300;text-align:center;text-anchor:middle">à</tspan>
   </text>
   <text x="340.57" y="422.92" style="fill:#666666;font-size:280.92505px;letter-spacing:0px;line-height:1000%;word-spacing:0px" xml:space="preserve">
    <tspan x="340.57" y="422.92" style="fill:#666666;font-family:Ubuntu;font-weight:300;text-align:center;text-anchor:middle">à</tspan>
   </text>
  </g>
 </g>
</svg>
